X:1
T:Title
%%score 1 { 2 | 3 }
L:1/8
Q:1/4=186
M:3/2
K:A
V:1 treble nm="Grand Piano, Soprano"
V:2 bass nm="Choir Pad, Ovio, Lowell Mason, 87.87"
V:3 bass 
V:1
 [CE]2 [CE]2 [CE]4 [A,C]4 | [EA]2 [EA]2 [EA]4 [CE]4 | [EA]2 [EB]2 [Ec]6 [EB]2 | [EA]2 [Ec]2 [EB]8 | %4
w: By~Lowell~Mason,~1859 * * *||||
 [EB]2 [Ec]2 [Ed]4 [EB]4 | [Ec]2 [Ed]2 [Ee]4 [Ec]4 | [EA]2 [EA]2 [DF]3 [DF] [B,E]4 | [DG]4 [CA]8- | %8
w: ||||
 [CA]4 z4 z4 |] %9
w: |
V:2
 A,2 A,2 A,4 E,4 | C2 C2 C4 A,4 | A,2 G,2 A,6 G,2 | A,2 A,2 G,8 | G,2 A,2 B,4 G,4 | %5
 A,2 B,2 C4 A,4 | A,2 A,2 A,3 A, G,4 | B,4 A,8- | A,4 z4 z4 |] %9
V:3
 A,,2 A,,2 A,,4 A,,4 | A,,2 A,,2 A,,4 A,,4 | C,2 E,2 z4 z2 E,2 | C,2 A,,2 E,8 | E,2 E,2 E,4 E,4 | %5
 z2 A,2 A,4 z4 | C,2 C,2 D,3 D, E,4 | E,4 A,,8- | A,,4 z4 z4 |] %9

